X: 458
T: Fangyang ge
%%abc-version 2.0
%%abcx-abcm2ps-target-version 5.9.1 (29 Sep 2008)
%%abc-creator hum2abc beta
%%abcx-conversion-date 2013/10/02 07:52:30
%%abc-edited-by Helmut Schaffrath
%%humdrum-veritas 2752027337
%%humdrum-veritas-data 418840877
%%continueall 1
%%barnumbers 0
L: 1/8
M: 2/4
K: F
d f c A [I:setbarnb 1]| 
d f c A | 
d4 | 
c2c d | 
d c A F | 
G4 | 
A c d f | 
A G F D | 
A A/ c/ G F | 
D4 |]  



